!!!COM: Bach, Johann Sebastian
!!!OPR: Das wohltemperirte Clavier, Band I
!!!XEN: The Well-Tempered Clavier, Volume I
!!!OTL: Prelude in G Major
!!!OMV: Prelude XV
!!!SCT: BWV 860
!!!SCA: Thematisch-systematisches Verzeichnis der musikalischen Werke Johann Sebastian Bach: Bach-Werke-Verzeichnis (Schmieder)
!!!YOR: Bach Gesellschaft Edition xiv
!!!ENC: Walter Hewlett
!!!CDT: 1685/3//-1750/7/28/
!!!OCY: Deutschland
!!!YEC: Copyright (c) 1994, 2000 Center for Computer Assisted Research in the Humanities
!!!YEM: Rights to all derivative editions reserved
!!!YEN: United States of America
**kern
*k[f#]
*G:
*M24/16
*MM120
=1-
*^
24g\LL	8G/L
24b\	.
24dd\JJ	.
24gg\LL	8GG/J
24dd\	.
24b\JJ	.
24dd\LL	8r
24b\	.
24g\JJ	.
24b/LL	8G\
24g/	.
24d/JJ	.
24e/LL	8G/L
24g/	.
24cc/JJ	.
24ee/LL	8GG/J
24cc/	.
24g/JJ	.
24cc/LL	8r
24g/	.
24e/JJ	.
24g/LL	8G\
24e/	.
24c/JJ	.
=2	=2
24A/LL	8G/L
24c/	.
24f#/JJ	.
24a/LL	8GG/J
24f#/	.
24c/JJ	.
24f#/LL	8r
24c/	.
24A/JJ	.
24c/LL	8G\
24A/	.
24F#/JJ	.
24G/LL	8G/L
24B/	.
24d/JJ	.
24g/LL	8GG/J
24d/	.
24B/JJ	.
24d/LL	8r
24B/	.
24G/JJ	.
24B/LL	8G\
24G/	.
24E/JJ	.
=3	=3
24A/LL	8G/L
24c#/	.
24e/JJ	.
24a/LL	8GG/J
24e/	.
24c#/JJ	.
24e/LL	8r
24c#/	.
24A/JJ	.
24c#/LL	8G\
24A/	.
24E/JJ	.
8d/	24F#\LL
.	24A\
.	24c#\JJ
8r	24d\LL
.	24A\
.	24F#\JJ
8r	24A\LL
.	24F#\
.	24D\JJ
8d/	24F#\LL
.	24D\
.	24BB\JJ
=4	=4
24d/LL	8E/L
24c#/	.
24d/JJ	.
24e/LL	8EE/J
24c#/	.
24d/JJ	.
24f#/LL	8r
24c#/	.
24d/JJ	.
24g/LL	8E\
24c#/	.
24d/JJ	.
24a/LL	8C#/L
24c#/	.
24d/JJ	.
24b/LL	8AA/J
24c#/	.
24d/JJ	.
24a/LL	8BB/L
24c#/	.
24d/JJ	.
24g/LL	8C#/J
24c#/	.
24d/JJ	.
=5	=5
8f#/L	24D\LL
.	24c#\
.	24d\JJ
8g/J	24E\LL
.	24c#\
.	24d\JJ
8a/L	24F#\LL
.	24c#\
.	24d\JJ
8b/J	24G\LL
.	24c#\
.	24d\JJ
8a/L	24F#\LL
.	24c#\
.	24d\JJ
8g/J	24E\LL
.	24c#\
.	24d\JJ
8f#/L	24D\LL
.	24c#\
.	24d\JJ
8a/J	24F#\LL
.	24c#\
.	24d\JJ
=6	=6
24g#\LL	8BB\L
24b\	.
24dd\JJ	.
24ffn\LL	8B\J
24dd\	.
24b\JJ	.
24dd\LL	8r
24b\	.
24g#\JJ	.
24b/LL	8A\
24g#/	.
24e/JJ	.
24d/LL	8G#/L
24fn/	.
24g#/JJ	.
24b/LL	8GG#/J
24g#/	.
24f/JJ	.
24g#/LL	8r
24f/	.
24d/JJ	.
24f/LL	8G#\
24d/	.
24B/JJ	.
=7	=7
8c/L	24A\LL
.	24c\
.	24e\JJ
8ee/J	24a\LL
.	24e\
.	24c\JJ
8cc\L	24e\LL
.	24c\
.	24A\JJ
8a\J	24c\LL
.	24A\
.	24E\JJ
8e\L	24C\LL
.	24E\
.	24A\JJ
8ee\J	24c\LL
.	24A\
.	24E\JJ
8cc\L	24A\LL
.	24E\
.	24C\JJ
8a\J	24E/LL
.	24C/
.	24AA/JJ
=8	=8
24dd#\LL	8FF#/L
24ff#\	.
24aa\JJ	.
24ccc\LL	8F#/J
24aa\	.
24ff#\JJ	.
24aa\LL	8r
24ff#\	.
24dd#\JJ	.
24ff#\LL	8E\
24dd#\	.
24b\JJ	.
24a\LL	8D#/L
24ccn\	.
24dd#\JJ	.
24ff#\LL	8DD#/J
24dd#\	.
24cc\JJ	.
24dd#\LL	8r
24cc\	.
24a\JJ	.
24cc/LL	8D#\
24a/	.
24f#/JJ	.
=9	=9
8g/L	24E\LL
.	24d#\
.	24e\JJ
8a/J	24F#\LL
.	24d#\
.	24e\JJ
8b/L	24G\LL
.	24d#\
.	24e\JJ
8cc/J	24A\LL
.	24d#\
.	24e\JJ
8b/L	24G\LL
.	24d#\
.	24e\JJ
8a/J	24F#\LL
.	24d#\
.	24e\JJ
8g/L	24E\LL
.	24d#\
.	24e\JJ
8b/J	24G\LL
.	24d#\
.	24e\JJ
=10	=10
24a/LL	8C#/L
24g#/	.
24a/JJ	.
24b/LL	8D/J
24g#/	.
24a/JJ	.
24cc#/LL	8E\L
24g#/	.
24a/JJ	.
24dd/LL	8F#\J
24g#/	.
24a/JJ	.
24ee/LL	8C#/L
24g#/	.
24a/JJ	.
24ff#/LL	8BB/J
24g#/	.
24a/JJ	.
24ggn\LL	8AA/L
24ee\	.
24cc#\JJ	.
24a\LL	8C#/J
24cc#\	.
24ee\JJ	.
=11	=11
8ff#\	24D\LL
.	24F#\
.	24A\JJ
8r	24d\LL
.	24A\
.	24F#\JJ
24aa\LL	8D\L
24ff#\	.
24dd\JJ	.
24ccn\LL	8d\J
24dd\	.
24ff#\JJ	.
8aa\L	24D\LL
.	24G\
.	24B\JJ
8gg\J	24d\LL
.	24B\
.	24G\JJ
24gg\LL	8D\L
24ee\	.
24cc#\JJ	.
24a\LL	8d\J
24cc#\	.
24ee\JJ	.
=12	=12
8gg\L	24D\LL
.	24A\
.	24c#\JJ
8ff#\J	24d\LL
.	24A\
.	24F#\JJ
24ff#\LL	8D\L
24dd\	.
24b\JJ	.
24g\LL	8d\J
24b\	.
24dd\JJ	.
8ff#\L	24D\LL
.	24E\
.	24G\JJ
8ee\J	24B\LL
.	24G\
.	24E\JJ
24ee\LL	8D\L
24cc#\	.
24a\JJ	.
24g\LL	8d\J
24a\	.
24cc#\JJ	.
=13	=13
8ee\L	24D\LL
.	24F#\
.	24A\JJ
8dd\J	24d\LL
.	24A\
.	24F#\JJ
8r	24A\LL
.	24F#\
.	24D\JJ
8dd\	24F#\LL
.	24D\
.	24Cn\JJ
24dd\LL	24BB\LL
24cc\	24D\
24b\JJ	24F#\JJ
24b/LL	24G\LL
24a/	24D\
24g/JJ	24BB\JJ
24g/LL	24D/LL
24b/	24BB/
24dd/JJ	24GG/JJ
24ffn\LL	24BB/LL
24ee\	24GG/
24dd\JJ	24FFn/JJ
=14	=14
24dd\LL	24EE/LL
24ee\	24GG/
24ffn\JJ	24BB/JJ
8ee\	24C\LL
.	24E\
.	24G\JJ
8r	24c\LL
.	24G\
.	24E\JJ
8ee\	24G\LL
.	24E\
.	24D\JJ
24ee\LL	24C#\LL
24dd\	24E\
24cc#\JJ	24G\JJ
24cc#\LL	24A\LL
24b\	24E\
24a\JJ	24C#\JJ
24a\LL	24E/LL
24cc#\	24C#/
24ee\JJ	24AA/JJ
24gg\LL	24C#/LL
24ff#\	24AA/
24ee\JJ	24GG/JJ
=15	=15
24ee\LL	24FF#/LL
24ff#\	24AA/
24gg\JJ	24C#/JJ
8ff#\	24D\LL
.	24F#\
.	24A\JJ
8r	24d\LL
.	24A\
.	24F#\JJ
8aa\	24A\LL
.	24F#\
.	24D\JJ
24aa\LL	24F#/LL
24gg\	24D/
24ff#\JJ	24AA/JJ
24ff#\LL	24D/LL
24ee\	24AA/
24dd\JJ	24FF#/JJ
24dd\LL	8DD/L
24ff#\	.
24aa\JJ	.
24ccc\LL	8D/J
24bb\	.
24aa\JJ	.
=16	=16
24aa\LL	[8GG/
24bb\	.
24ccc\JJ	.
[8bb\	24GG/LL]
.	24BB/
.	24D/JJ
24bb\LL]	24G\LL
24aa\	24A\
24gg\JJ	24B\JJ
24ffn\LL	24B\LL
24ee\	24c\
24dd\JJ	24d\JJ
24cc\LL	8e\
24ee\	.
24gg\JJ	.
24aa\LL	24c\LL
24ff#\	24A\
24dd\JJ	24F#\JJ
24b\LL	8d\
24dd\	.
24ff#\JJ	.
24gg\LL	24B\LL
24ee\	24G\
24cc\JJ	24E\JJ
=17	=17
24a\LL	8c\
24cc\	.
24ee\JJ	.
24ff#\LL	24A\LL
24dd\	24F#\
24b\JJ	24D\JJ
24g\LL	8B\
24b\	.
24dd\JJ	.
24ee\LL	24G\LL
24cc\	24E\
24a\JJ	24C\JJ
24f#/LL	8A\
24a/	.
24cc/JJ	.
24dd/LL	24F#\LL
24b/	24D\
24g/JJ	24BB\JJ
24e/LL	8G\
24g/	.
24b/JJ	.
24cc/LL	24E/LL
24a/	24C/
24f#/JJ	24AA/JJ
=18	=18
24d/LL	8F#\
24f#/	.
24a/JJ	.
24b/LL	24D/LL
24g/	24BB/
24e/JJ	24GG/JJ
24c/LL	24E/LL
24e/	24C/
24g/JJ	24AA/JJ
24a/LL	24F#/LL
24f#/	24D/
24d/JJ	24BB/JJ
24B/LL	8G\L
24d/	.
24f#/JJ	.
24g/LL	8E\J
24e/	.
24c/JJ	.
24A/LL	8C/L
24c/	.
24e/JJ	.
24f#/LL	8D/J
24d/	.
24c/JJ	.
=19	=19
1g;/ 1d/ 1B/	1GG;/
==|!	==|!
*-	*-
!!!END: 1994/01/15/
!!!KEY: 3932155026
!!!EMD: Converted from MuseData to Humdrum Dec 19, 2000, by Andreas Kornstaedt using muse2kern.
